www/assets/icons/settings_bluetooth.svg

<svg width="24" height="24" viewBox="0 0 24 24" xmlns="http://www.w3.org/2000/svg" fill='currentColor'><path d="M11.645 24H13.645V22H11.645V24ZM7.64502 24H9.64502V22H7.64502V24ZM15.645 24H17.645V22H15.645V24ZM18.355 5.71L12.645 0H11.645V7.59L7.05502 3L5.64502 4.41L11.235 10L5.64502 15.59L7.05502 17L11.645 12.41V20H12.645L18.355 14.29L14.055 10L18.355 5.71ZM13.645 3.83L15.525 5.71L13.645 7.59V3.83ZM15.525 14.29L13.645 16.17V12.41L15.525 14.29Z"/></svg>

<svg xmlns="http://www.w3.org/2000/svg" width="24" height="24" viewBox="0 0 24 24" fill='currentColor'><path d="M11.645 24h2v-2h-2zm-4 0h2v-2h-2zm8 0h2v-2h-2zm2.71-18.29L12.645 0h-1v7.59L7.055 3l-1.41 1.41 5.59 5.59-5.59 5.59L7.055 17l4.59-4.59V20h1l5.71-5.71-4.3-4.29zm-4.71-1.88 1.88 1.88-1.88 1.88zm1.88 10.46-1.88 1.88v-3.76z"/></svg>
